svg/folder_sync_outline.svg

<svg xmlns="http://www.w3.org/2000/svg" viewBox="0 0 24 24"><path d="m10 4 2 2h8a2 2 0 0 1 2 2v3.5a7 7 0 0 0-2-.5V8H4v10h9c.07.7.24 1.38.5 2H4a2 2 0 0 1-2-2V6c0-1.11.89-2 2-2zm9 8v1.5a4 4 0 0 1 4 4c0 .82-.25 1.58-.67 2.21l-1.09-1.09c.17-.34.26-.72.26-1.12A2.5 2.5 0 0 0 19 15v1.5l-2.25-2.25-.03-.03c.06-.05.13-.09 2.28-2.22m0 11v-1.5a4 4 0 0 1-4-4c0-.82.25-1.58.67-2.21l1.09 1.09c-.17.34-.26.72-.26 1.12A2.5 2.5 0 0 0 19 20v-1.5l2.25 2.25.03.03c-.06.05-.13.09-2.28 2.22"/></svg>

<?xml version="1.0" encoding="UTF-8"?><!DOCTYPE svg PUBLIC "-//W3C//DTD SVG 1.1//EN" "http://www.w3.org/Graphics/SVG/1.1/DTD/svg11.dtd"><svg xmlns="http://www.w3.org/2000/svg" xmlns:xlink="http://www.w3.org/1999/xlink" version="1.1" id="mdi-folder-sync-outline" width="24" height="24" viewBox="0 0 24 24"><path d="M10,4L12,6H20A2,2 0 0,1 22,8V11.5C21.38,11.24 20.7,11.07 20,11V8H4V18H13C13.07,18.7 13.24,19.38 13.5,20H4C2.89,20 2,19.1 2,18V6C2,4.89 2.89,4 4,4H10M19,12V13.5A4,4 0 0,1 23,17.5C23,18.32 22.75,19.08 22.33,19.71L21.24,18.62C21.41,18.28 21.5,17.9 21.5,17.5A2.5,2.5 0 0,0 19,15V16.5L16.75,14.25L16.72,14.22C16.78,14.17 16.85,14.13 19,12M19,23V21.5A4,4 0 0,1 15,17.5C15,16.68 15.25,15.92 15.67,15.29L16.76,16.38C16.59,16.72 16.5,17.1 16.5,17.5A2.5,2.5 0 0,0 19,20V18.5L21.25,20.75L21.28,20.78C21.22,20.83 21.15,20.87 19,23Z" /></svg>
